images/global/icons/experiential/road-blocks.svg

<svg id="Layer_1" data-name="Layer 1" xmlns="http://www.w3.org/2000/svg" viewBox="0 0 276 137"><defs><style>.cls-1,.cls-2,.cls-43{fill:none}.cls-1{clip-rule:evenodd}.cls-43,.cls-44{stroke:#091f2f;stroke-miterlimit:10;stroke-width:3px}.cls-44{fill:#fff}</style><clipPath id="clip-path"><path class="cls-1" d="M383.67-284.51h-1.5v84h108v-84h-106.5zm0 3h105l-1.5-1.5v81l1.5-1.5h-105l1.5 1.5v-81zm-21.5-23h148v124h-148z"/></clipPath><clipPath id="clip-path-2"><path class="cls-2" d="M383.67-283.01h105v81h-105z"/></clipPath><clipPath id="clip-path-4"><path class="cls-1" d="M377.67-267.51h-2.24l.85-2.07 9.07-22 .38-.93H486.6l.38.93 9.07 22 .85 2.07H377.67zm0-3h117l-1.39 2.07-9.07-22 1.39.93h-98.86l1.39-.93-9.07 22zm-22.24 23h161.48v-65H355.43z"/></clipPath><clipPath id="clip-path-5"><path class="cls-1" d="M377.67-269.01h117l-9.07-22h-98.86l-9.07 22z"/></clipPath><clipPath id="clip-path-7"><path class="cls-1" d="M462.67-300.51h-1.5v19h15v-19h-13.5zm0 3h12l-1.5-1.5v16l1.5-1.5h-12l1.5 1.5v-16zm-21.5-23h55v59h-55z"/></clipPath><clipPath id="clip-path-8"><path class="cls-2" d="M462.67-299.01h12v16h-12z"/></clipPath><clipPath id="clip-path-10"><path class="cls-1" d="M396.67-234.51h-1.5v34h24v-34h-22.5zm0 3h21l-1.5-1.5v31l1.5-1.5h-21l1.5 1.5v-31zm-21.5-23h64v74h-64z"/></clipPath><clipPath id="clip-path-11"><path class="cls-2" d="M396.67-233.01h21v31h-21z"/></clipPath><clipPath id="clip-path-13"><path class="cls-1" d="M397.67-262.51h-1.5v22h22v-22h-20.5zm0 3h19l-1.5-1.5v19l1.5-1.5h-19l1.5 1.5v-19zm-21.5-23h62v62h-62z"/></clipPath><clipPath id="clip-path-14"><path class="cls-2" d="M397.67-261.01h19v19h-19z"/></clipPath><clipPath id="clip-path-16"><path class="cls-1" d="M402.67-257.51h-1.5v12h12v-12h-10.5zm0 3h9l-1.5-1.5v9l1.5-1.5h-9l1.5 1.5v-9zm-21.5-23h52v52h-52z"/></clipPath><clipPath id="clip-path-17"><path class="cls-2" d="M402.67-256.01h9v9h-9z"/></clipPath><clipPath id="clip-path-19"><path class="cls-1" d="M427.67-262.51h-1.5v22h22v-22h-20.5zm0 3h19l-1.5-1.5v19l1.5-1.5h-19l1.5 1.5v-19zm-21.5-23h62v62h-62z"/></clipPath><clipPath id="clip-path-20"><path class="cls-2" d="M427.67-261.01h19v19h-19z"/></clipPath><clipPath id="clip-path-22"><path class="cls-1" d="M456.67-262.51h-1.5v22h22v-22h-20.5zm0 3h19l-1.5-1.5v19l1.5-1.5h-19l1.5 1.5v-19zm-21.5-23h62v62h-62z"/></clipPath><clipPath id="clip-path-23"><path class="cls-2" d="M456.67-261.01h19v19h-19z"/></clipPath><clipPath id="clip-path-25"><path class="cls-1" d="M427.67-234.51h-1.5v22h22v-22h-20.5zm0 3h19l-1.5-1.5v19l1.5-1.5h-19l1.5 1.5v-19zm-21.5-23h62v62h-62z"/></clipPath><clipPath id="clip-path-26"><path class="cls-2" d="M427.67-233.01h19v19h-19z"/></clipPath><clipPath id="clip-path-28"><path class="cls-1" d="M456.67-234.51h-1.5v22h22v-22h-20.5zm0 3h19l-1.5-1.5v19l1.5-1.5h-19l1.5 1.5v-19zm-21.5-23h62v62h-62z"/></clipPath><clipPath id="clip-path-29"><path class="cls-2" d="M456.67-233.01h19v19h-19z"/></clipPath><clipPath id="clip-path-31"><path class="cls-1" d="M432.67-257.51h-1.5v12h12v-12h-10.5zm0 3h9l-1.5-1.5v9l1.5-1.5h-9l1.5 1.5v-9zm-21.5-23h52v52h-52z"/></clipPath><clipPath id="clip-path-32"><path class="cls-2" d="M432.67-256.01h9v9h-9z"/></clipPath><clipPath id="clip-path-34"><path class="cls-1" d="M461.67-257.51h-1.5v12h12v-12h-10.5zm0 3h9l-1.5-1.5v9l1.5-1.5h-9l1.5 1.5v-9zm-21.5-23h52v52h-52z"/></clipPath><clipPath id="clip-path-35"><path class="cls-2" d="M461.67-256.01h9v9h-9z"/></clipPath><clipPath id="clip-path-37"><path class="cls-1" d="M432.67-229.51h-1.5v12h12v-12h-10.5zm0 3h9l-1.5-1.5v9l1.5-1.5h-9l1.5 1.5v-9zm-21.5-23h52v52h-52z"/></clipPath><clipPath id="clip-path-38"><path class="cls-2" d="M432.67-228.01h9v9h-9z"/></clipPath><clipPath id="clip-path-40"><path class="cls-1" d="M461.67-229.51h-1.5v12h12v-12h-10.5zm0 3h9l-1.5-1.5v9l1.5-1.5h-9l1.5 1.5v-9zm-21.5-23h52v52h-52z"/></clipPath><clipPath id="clip-path-41"><path class="cls-2" d="M461.67-228.01h9v9h-9z"/></clipPath><clipPath id="clip-path-43"><path class="cls-1" d="M-643.77 509.13h-1.5v38h142V522l-.41-.43-11.44-12-.44-.46h-128.2zm0 3h127.56l-1.09-.46 11.44 12-.41-1v23l1.5-1.5h-139l1.5 1.5v-35zm-21.5-23h182v78h-182z"/></clipPath><clipPath id="clip-path-44"><path class="cls-1" d="M-643.77 510.63h127.56l11.44 12v23h-139v-35z"/></clipPath><clipPath id="clip-path-46"><path class="cls-1" d="M-610.77 560.55a14.5 14.5 0 0 1-14.5-14.5 14.5 14.5 0 0 1 14.5-14.5 14.5 14.5 0 0 1 14.5 14.5 14.5 14.5 0 0 1-14.5 14.5zm0 3a17.5 17.5 0 0 0 17.5-17.5 17.5 17.5 0 0 0-17.5-17.5 17.5 17.5 0 0 0-17.5 17.5 17.5 17.5 0 0 0 17.5 17.5zm-37.5-55h75v75h-75z"/></clipPath><clipPath id="clip-path-47"><circle class="cls-2" cx="-610.77" cy="546.05" r="16"/></clipPath><clipPath id="clip-path-49"><path class="cls-1" d="M-610.77 553.55a7.5 7.5 0 0 1-7.5-7.5 7.5 7.5 0 0 1 7.5-7.5 7.5 7.5 0 0 1 7.5 7.5 7.5 7.5 0 0 1-7.5 7.5zm0 3a10.5 10.5 0 0 0 10.5-10.5 10.5 10.5 0 0 0-10.5-10.5 10.5 10.5 0 0 0-10.5 10.5 10.5 10.5 0 0 0 10.5 10.5zm-30.5-41h61v61h-61z"/></clipPath><clipPath id="clip-path-50"><circle class="cls-2" cx="-610.77" cy="546.05" r="9"/></clipPath><clipPath id="clip-path-52"><path class="cls-1" d="M-544.54 560.55a14.5 14.5 0 0 1-14.5-14.5 14.5 14.5 0 0 1 14.5-14.5 14.5 14.5 0 0 1 14.5 14.5 14.5 14.5 0 0 1-14.5 14.5zm0 3a17.5 17.5 0 0 0 17.5-17.5 17.5 17.5 0 0 0-17.5-17.5 17.5 17.5 0 0 0-17.5 17.5 17.5 17.5 0 0 0 17.5 17.5zm-37.5-55h75v75h-75z"/></clipPath><clipPath id="clip-path-53"><circle class="cls-2" cx="-544.54" cy="546.05" r="16"/></clipPath><clipPath id="clip-path-55"><path class="cls-1" d="M-544.31 505.72l-7.69-15.57h-27.17v15.57zm-75.16 0l7.38-15.55h27.17v15.53zm-10.3 5.35l14.14-26.89h66.84l15.35 27.82z"/></clipPath><clipPath id="clip-path-56"><path class="cls-1" d="M-544.54 553.55a7.5 7.5 0 0 1-7.5-7.5 7.5 7.5 0 0 1 7.5-7.5 7.5 7.5 0 0 1 7.5 7.5 7.5 7.5 0 0 1-7.5 7.5zm0 3a10.5 10.5 0 0 0 10.5-10.5 10.5 10.5 0 0 0-10.5-10.5 10.5 10.5 0 0 0-10.5 10.5 10.5 10.5 0 0 0 10.5 10.5zm-30.5-41h61v61h-61z"/></clipPath><clipPath id="clip-path-57"><circle class="cls-2" cx="-544.54" cy="546.05" r="9"/></clipPath><clipPath id="clip-path-59"><circle class="cls-2" cx="-145.7" cy="859.62" r="50.5"/></clipPath><clipPath id="clip-path-60"><circle class="cls-2" cx="-145.7" cy="859.62" r="43.5"/></clipPath></defs><path class="cls-43" d="M115.71 53.29l-4.32 50.45m61.06-50.45l4.33 50.45"/><path class="cls-44" d="M101.12 39.44h84.84v12.22h-84.84zm0 23.18h84.84v12.22h-84.84z"/><path class="cls-43" d="M112.67 88.78h62.88M114.91 40.2l-7.84 10.7m20.75-10.7l-7.84 10.7m20.75-10.7l-7.83 10.7m20.74-10.7l-7.83 10.7m20.75-10.7l-7.84 10.7m20.75-10.7l-7.84 10.7m-56.72 12.48l-7.84 10.71m20.75-10.71l-7.84 10.71m20.75-10.71l-7.83 10.71m20.74-10.71l-7.83 10.71m20.75-10.71l-7.84 10.71m20.75-10.71l-7.84 10.71"/></svg>

<svg id="Layer_1" data-name="Layer 1" xmlns="http://www.w3.org/2000/svg" viewBox="0 0 276 137"><defs><style>.cls-1,.cls-2,.cls-3,.cls-43{fill:none}.cls-1{clip-rule:evenodd}.cls-3{fill-rule:evenodd}.cls-4{clip-path:url(#clip-path)}.cls-5{clip-path:url(#clip-path-2)}.cls-6{clip-path:url(#clip-path-4)}.cls-7{clip-path:url(#clip-path-5)}.cls-8{clip-path:url(#clip-path-7)}.cls-9{clip-path:url(#clip-path-8)}.cls-10{clip-path:url(#clip-path-10)}.cls-11{clip-path:url(#clip-path-11)}.cls-12{clip-path:url(#clip-path-13)}.cls-13{clip-path:url(#clip-path-14)}.cls-14{clip-path:url(#clip-path-16)}.cls-15{clip-path:url(#clip-path-17)}.cls-16{clip-path:url(#clip-path-19)}.cls-17{clip-path:url(#clip-path-20)}.cls-18{clip-path:url(#clip-path-22)}.cls-19{clip-path:url(#clip-path-23)}.cls-20{clip-path:url(#clip-path-25)}.cls-21{clip-path:url(#clip-path-26)}.cls-22{clip-path:url(#clip-path-28)}.cls-23{clip-path:url(#clip-path-29)}.cls-24{clip-path:url(#clip-path-31)}.cls-25{clip-path:url(#clip-path-32)}.cls-26{clip-path:url(#clip-path-34)}.cls-27{clip-path:url(#clip-path-35)}.cls-28{clip-path:url(#clip-path-37)}.cls-29{clip-path:url(#clip-path-38)}.cls-30{clip-path:url(#clip-path-40)}.cls-31{clip-path:url(#clip-path-41)}.cls-32{clip-path:url(#clip-path-43)}.cls-33{clip-path:url(#clip-path-44)}.cls-34{clip-path:url(#clip-path-46)}.cls-35{clip-path:url(#clip-path-47)}.cls-36{clip-path:url(#clip-path-49)}.cls-37{clip-path:url(#clip-path-50)}.cls-38{clip-path:url(#clip-path-52)}.cls-39{clip-path:url(#clip-path-53)}.cls-40{clip-path:url(#clip-path-55)}.cls-41{clip-path:url(#clip-path-56)}.cls-42{clip-path:url(#clip-path-57)}.cls-43,.cls-44{stroke:#091f2f;stroke-miterlimit:10;stroke-width:3px}.cls-44{fill:#fff}.cls-45{clip-path:url(#clip-path-59)}.cls-46{clip-path:url(#clip-path-60)}</style><clipPath id="clip-path"><path class="cls-1" d="M383.67-284.51h-1.5v84h108v-84h-106.5zm0 3h105l-1.5-1.5v81l1.5-1.5h-105l1.5 1.5v-81zm-21.5-23h148v124h-148z"/></clipPath><clipPath id="clip-path-2"><path class="cls-2" d="M383.67-283.01h105v81h-105z"/></clipPath><clipPath id="clip-path-4"><path class="cls-1" d="M377.67-267.51h-2.24l.85-2.07 9.07-22 .38-.93H486.6l.38.93 9.07 22 .85 2.07H377.67zm0-3h117l-1.39 2.07-9.07-22 1.39.93h-98.86l1.39-.93-9.07 22zm-22.24 23h161.48v-65H355.43z"/></clipPath><clipPath id="clip-path-5"><path class="cls-1" d="M377.67-269.01h117l-9.07-22h-98.86l-9.07 22z"/></clipPath><clipPath id="clip-path-7"><path class="cls-1" d="M462.67-300.51h-1.5v19h15v-19h-13.5zm0 3h12l-1.5-1.5v16l1.5-1.5h-12l1.5 1.5v-16zm-21.5-23h55v59h-55z"/></clipPath><clipPath id="clip-path-8"><path class="cls-2" d="M462.67-299.01h12v16h-12z"/></clipPath><clipPath id="clip-path-10"><path class="cls-1" d="M396.67-234.51h-1.5v34h24v-34h-22.5zm0 3h21l-1.5-1.5v31l1.5-1.5h-21l1.5 1.5v-31zm-21.5-23h64v74h-64z"/></clipPath><clipPath id="clip-path-11"><path class="cls-2" d="M396.67-233.01h21v31h-21z"/></clipPath><clipPath id="clip-path-13"><path class="cls-1" d="M397.67-262.51h-1.5v22h22v-22h-20.5zm0 3h19l-1.5-1.5v19l1.5-1.5h-19l1.5 1.5v-19zm-21.5-23h62v62h-62z"/></clipPath><clipPath id="clip-path-14"><path class="cls-2" d="M397.67-261.01h19v19h-19z"/></clipPath><clipPath id="clip-path-16"><path class="cls-1" d="M402.67-257.51h-1.5v12h12v-12h-10.5zm0 3h9l-1.5-1.5v9l1.5-1.5h-9l1.5 1.5v-9zm-21.5-23h52v52h-52z"/></clipPath><clipPath id="clip-path-17"><path class="cls-2" d="M402.67-256.01h9v9h-9z"/></clipPath><clipPath id="clip-path-19"><path class="cls-1" d="M427.67-262.51h-1.5v22h22v-22h-20.5zm0 3h19l-1.5-1.5v19l1.5-1.5h-19l1.5 1.5v-19zm-21.5-23h62v62h-62z"/></clipPath><clipPath id="clip-path-20"><path class="cls-2" d="M427.67-261.01h19v19h-19z"/></clipPath><clipPath id="clip-path-22"><path class="cls-1" d="M456.67-262.51h-1.5v22h22v-22h-20.5zm0 3h19l-1.5-1.5v19l1.5-1.5h-19l1.5 1.5v-19zm-21.5-23h62v62h-62z"/></clipPath><clipPath id="clip-path-23"><path class="cls-2" d="M456.67-261.01h19v19h-19z"/></clipPath><clipPath id="clip-path-25"><path class="cls-1" d="M427.67-234.51h-1.5v22h22v-22h-20.5zm0 3h19l-1.5-1.5v19l1.5-1.5h-19l1.5 1.5v-19zm-21.5-23h62v62h-62z"/></clipPath><clipPath id="clip-path-26"><path class="cls-2" d="M427.67-233.01h19v19h-19z"/></clipPath><clipPath id="clip-path-28"><path class="cls-1" d="M456.67-234.51h-1.5v22h22v-22h-20.5zm0 3h19l-1.5-1.5v19l1.5-1.5h-19l1.5 1.5v-19zm-21.5-23h62v62h-62z"/></clipPath><clipPath id="clip-path-29"><path class="cls-2" d="M456.67-233.01h19v19h-19z"/></clipPath><clipPath id="clip-path-31"><path class="cls-1" d="M432.67-257.51h-1.5v12h12v-12h-10.5zm0 3h9l-1.5-1.5v9l1.5-1.5h-9l1.5 1.5v-9zm-21.5-23h52v52h-52z"/></clipPath><clipPath id="clip-path-32"><path class="cls-2" d="M432.67-256.01h9v9h-9z"/></clipPath><clipPath id="clip-path-34"><path class="cls-1" d="M461.67-257.51h-1.5v12h12v-12h-10.5zm0 3h9l-1.5-1.5v9l1.5-1.5h-9l1.5 1.5v-9zm-21.5-23h52v52h-52z"/></clipPath><clipPath id="clip-path-35"><path class="cls-2" d="M461.67-256.01h9v9h-9z"/></clipPath><clipPath id="clip-path-37"><path class="cls-1" d="M432.67-229.51h-1.5v12h12v-12h-10.5zm0 3h9l-1.5-1.5v9l1.5-1.5h-9l1.5 1.5v-9zm-21.5-23h52v52h-52z"/></clipPath><clipPath id="clip-path-38"><path class="cls-2" d="M432.67-228.01h9v9h-9z"/></clipPath><clipPath id="clip-path-40"><path class="cls-1" d="M461.67-229.51h-1.5v12h12v-12h-10.5zm0 3h9l-1.5-1.5v9l1.5-1.5h-9l1.5 1.5v-9zm-21.5-23h52v52h-52z"/></clipPath><clipPath id="clip-path-41"><path class="cls-2" d="M461.67-228.01h9v9h-9z"/></clipPath><clipPath id="clip-path-43"><path class="cls-1" d="M-643.77 509.13h-1.5v38h142V522l-.41-.43-11.44-12-.44-.46h-128.2zm0 3h127.56l-1.09-.46 11.44 12-.41-1v23l1.5-1.5h-139l1.5 1.5v-35zm-21.5-23h182v78h-182z"/></clipPath><clipPath id="clip-path-44"><path class="cls-1" d="M-643.77 510.63h127.56l11.44 12v23h-139v-35z"/></clipPath><clipPath id="clip-path-46"><path class="cls-1" d="M-610.77 560.55a14.5 14.5 0 0 1-14.5-14.5 14.5 14.5 0 0 1 14.5-14.5 14.5 14.5 0 0 1 14.5 14.5 14.5 14.5 0 0 1-14.5 14.5zm0 3a17.5 17.5 0 0 0 17.5-17.5 17.5 17.5 0 0 0-17.5-17.5 17.5 17.5 0 0 0-17.5 17.5 17.5 17.5 0 0 0 17.5 17.5zm-37.5-55h75v75h-75z"/></clipPath><clipPath id="clip-path-47"><circle class="cls-2" cx="-610.77" cy="546.05" r="16"/></clipPath><clipPath id="clip-path-49"><path class="cls-1" d="M-610.77 553.55a7.5 7.5 0 0 1-7.5-7.5 7.5 7.5 0 0 1 7.5-7.5 7.5 7.5 0 0 1 7.5 7.5 7.5 7.5 0 0 1-7.5 7.5zm0 3a10.5 10.5 0 0 0 10.5-10.5 10.5 10.5 0 0 0-10.5-10.5 10.5 10.5 0 0 0-10.5 10.5 10.5 10.5 0 0 0 10.5 10.5zm-30.5-41h61v61h-61z"/></clipPath><clipPath id="clip-path-50"><circle class="cls-2" cx="-610.77" cy="546.05" r="9"/></clipPath><clipPath id="clip-path-52"><path class="cls-1" d="M-544.54 560.55a14.5 14.5 0 0 1-14.5-14.5 14.5 14.5 0 0 1 14.5-14.5 14.5 14.5 0 0 1 14.5 14.5 14.5 14.5 0 0 1-14.5 14.5zm0 3a17.5 17.5 0 0 0 17.5-17.5 17.5 17.5 0 0 0-17.5-17.5 17.5 17.5 0 0 0-17.5 17.5 17.5 17.5 0 0 0 17.5 17.5zm-37.5-55h75v75h-75z"/></clipPath><clipPath id="clip-path-53"><circle class="cls-2" cx="-544.54" cy="546.05" r="16"/></clipPath><clipPath id="clip-path-55"><path class="cls-1" d="M-544.31 505.72l-7.69-15.57h-27.17v15.57zm-75.16 0l7.38-15.55h27.17v15.53zm-10.3 5.35l14.14-26.89h66.84l15.35 27.82z"/></clipPath><clipPath id="clip-path-56"><path class="cls-1" d="M-544.54 553.55a7.5 7.5 0 0 1-7.5-7.5 7.5 7.5 0 0 1 7.5-7.5 7.5 7.5 0 0 1 7.5 7.5 7.5 7.5 0 0 1-7.5 7.5zm0 3a10.5 10.5 0 0 0 10.5-10.5 10.5 10.5 0 0 0-10.5-10.5 10.5 10.5 0 0 0-10.5 10.5 10.5 10.5 0 0 0 10.5 10.5zm-30.5-41h61v61h-61z"/></clipPath><clipPath id="clip-path-57"><circle class="cls-2" cx="-544.54" cy="546.05" r="9"/></clipPath><clipPath id="clip-path-59"><circle class="cls-2" cx="-145.7" cy="859.62" r="50.5"/></clipPath><clipPath id="clip-path-60"><circle class="cls-2" cx="-145.7" cy="859.62" r="43.5"/></clipPath></defs><title>EXPERIENTIAL ICONS</title><path class="cls-43" d="M115.71 53.29l-4.32 50.45M172.45 53.29l4.33 50.45"/><path class="cls-44" d="M101.12 39.44h84.84v12.22h-84.84zM101.12 62.62h84.84v12.22h-84.84z"/><path class="cls-43" d="M112.67 88.78h62.88M114.91 40.2l-7.84 10.7M127.82 40.2l-7.84 10.7M140.73 40.2l-7.83 10.7M153.64 40.2l-7.83 10.7M166.56 40.2l-7.84 10.7M179.47 40.2l-7.84 10.7M114.91 63.38l-7.84 10.71M127.82 63.38l-7.84 10.71M140.73 63.38l-7.83 10.71M153.64 63.38l-7.83 10.71M166.56 63.38l-7.84 10.71M179.47 63.38l-7.84 10.71"/></svg>
